X: 141
T:Blowzabella
M:6/8
L:1/8
K:D
A2 G FED | G2 E F2 D | A2 G FED |
F2 A D3 :||
d2 A FDF | GFE F2 D | d2 A FDF |
1 GAF D3 |2 GAF D2 ||
E | FEF GFG | A3 A2 G | FGF EFE |
1 D3 D2 |2 D3 D3 ||
F2 D F2 D | FEF F2 D | F2 D F2 D |
1 EFE D3 |2 EFE D2 ||
E | FEF GFG | A3 A2 G | FGF EFE |D3 D2 :||
d | d=cA c2 A | GFG AGF | FEF DEF |
1 GFE F2 D |2 GFE D3||
